X: 14549
T: Gan Ainm
R: reel
M: 4/4
K: Gmajor
GA|Bdde dBGA|~B2BG AGE2|Bdde dBGA|BAGB A2GA|
Bdde dBGA|~B2BG AGE2|~B2BG AGEG|DEGA G2AB||
d4 e2de|d2dA BAG2|Bdd2 edBd|gedB A2GA|
Bdd2 gedB|d2dA BAGA|~B2BG AGE2|DEGA G2AB||
d2de dBGA|~B2BG AGE2|d2de gede|gedB A2GA|
Bdd2 gedB|d2dA BAGA|B3G AGE2|DEGA G2Bd||
gedB BcBA|BAGB ~A2Gd|gedB B3A|BAGB A2Bd|
gedB BcBA|BAGB ~A2GA|~B2BG AGEG|DEGA G2AB||

